Origami/24x24/apps/solaar.svg

<svg width="24" height="24" version="1" xmlns="http://www.w3.org/2000/svg">
 <rect transform="matrix(0,-1,-1,0,0,0)" x="-22" y="-22" width="20" height="20" rx="1" ry="1" style="fill:#029499"/>
 <path d="m2 3.5v-0.5c0-0.554 0.446-1 1-1h18c0.554 0 1 0.446 1 1v0.5c0-0.554-0.446-1-1-1h-18c-0.554 0-1 0.446-1 1z" style="fill:#ffffff;opacity:.2"/>
 <path d="m2 21v0.5c0 0.554 0.446 1 1 1h18c0.554 0 1-0.446 1-1v-0.5c0 0.554-0.446 1-1 1h-18c-0.554 0-1-0.446-1-1z" style="opacity:.2"/>
 <path d="m9.3671875 5.937-1.734375 1 1.5644531 2.7089844a4 4 0 0 0 -1.0644531 1.8535156h-3.1328125v2h3.1308594a4 4 0 0 0 1.0683594 1.851562l-1.5664063 2.710938 1.734375 1 1.5644535-2.710938a4 4 0 0 0 1.068359 0.148438 4 4 0 0 0 1.070312 -0.146484l1.5625 2.708984 1.734376-1-1.564454-2.708984a4 4 0 0 0 1.064454 -1.853516h3.132812v-2h-3.130859a4 4 0 0 0 -1.06836 -1.8515625l1.566407-2.7109375-1.734376-1-1.564453 2.7109375a4 4 0 0 0 -1.068359 -0.1484375 4 4 0 0 0 -1.070312 0.1464844l-1.5625005-2.7089844zm2.6328125 4.5625a2 2 0 0 1 2 2 2 2 0 0 1 -2 2 2 2 0 0 1 -2 -2 2 2 0 0 1 2 -2z" style="opacity:.2"/>
 <path d="m9.3671875 5.4375l-1.734375 1 1.5644531 2.7089844a4 4 0 0 0 -1.0644531 1.8535156h-3.1328125v2h3.1308594a4 4 0 0 0 1.0683594 1.851562l-1.5664063 2.710938 1.734375 1 1.5644535-2.710938a4 4 0 0 0 1.068359 0.148438 4 4 0 0 0 1.070312 -0.146484l1.5625 2.708984 1.734376-1-1.564454-2.708984a4 4 0 0 0 1.064454 -1.853516h3.132812v-2h-3.130859a4 4 0 0 0 -1.06836 -1.8515625l1.566407-2.7109375-1.734376-1-1.564453 2.7109375a4 4 0 0 0 -1.068359 -0.1484375 4 4 0 0 0 -1.070312 0.1464844l-1.5625005-2.7089844zm2.6328125 4.5625a2 2 0 0 1 2 2 2 2 0 0 1 -2 2 2 2 0 0 1 -2 -2 2 2 0 0 1 2 -2z" style="fill:#ffffff"/>
</svg>

<svg xmlns="http://www.w3.org/2000/svg" width="24" height="24" version="1">
 <rect style="fill:#029499" width="20" height="20" x="-22" y="-22" rx="1" ry="1" transform="matrix(0,-1,-1,0,0,0)"/>
 <path style="opacity:0.2;fill:#ffffff" d="M 2,3.5 2,3 C 2,2.446 2.446,2 3,2 l 18,0 c 0.554,0 1,0.446 1,1 l 0,0.5 c 0,-0.554 -0.446,-1 -1,-1 l -18,0 c -0.554,0 -1,0.446 -1,1 z"/>
 <path style="opacity:0.2" d="m 2,21 0,0.5 c 0,0.554 0.446,1 1,1 l 18,0 c 0.554,0 1,-0.446 1,-1 L 22,21 c 0,0.554 -0.446,1 -1,1 L 3,22 C 2.446,22 2,21.554 2,21 Z"/>
 <path style="opacity:0.2" d="m 9.3671875,5.937 -1.734375,1 1.5644531,2.7089844 A 4,4 0 0 0 8.1328125,11.4995 L 5,11.4995 l 0,2 3.1308594,0 a 4,4 0 0 0 1.0683594,1.851562 L 7.6328125,18.062 l 1.734375,1 1.5644535,-2.710938 A 4,4 0 0 0 12,16.4995 4,4 0 0 0 13.070312,16.353016 l 1.5625,2.708984 1.734376,-1 -1.564454,-2.708984 A 4,4 0 0 0 15.867188,13.4995 l 3.132812,0 0,-2 -3.130859,0 A 4,4 0 0 0 14.800781,9.6479375 L 16.367188,6.937 l -1.734376,-1 -1.564453,2.7109375 A 4,4 0 0 0 12,8.4995 4,4 0 0 0 10.929688,8.6459844 L 9.3671875,5.937 Z M 12,10.4995 a 2,2 0 0 1 2,2 2,2 0 0 1 -2,2 2,2 0 0 1 -2,-2 2,2 0 0 1 2,-2 z"/>
 <path style="fill:#ffffff" d="M 9.3671875 5.4375 L 7.6328125 6.4375 L 9.1972656 9.1464844 A 4 4 0 0 0 8.1328125 11 L 5 11 L 5 13 L 8.1308594 13 A 4 4 0 0 0 9.1992188 14.851562 L 7.6328125 17.5625 L 9.3671875 18.5625 L 10.931641 15.851562 A 4 4 0 0 0 12 16 A 4 4 0 0 0 13.070312 15.853516 L 14.632812 18.5625 L 16.367188 17.5625 L 14.802734 14.853516 A 4 4 0 0 0 15.867188 13 L 19 13 L 19 11 L 15.869141 11 A 4 4 0 0 0 14.800781 9.1484375 L 16.367188 6.4375 L 14.632812 5.4375 L 13.068359 8.1484375 A 4 4 0 0 0 12 8 A 4 4 0 0 0 10.929688 8.1464844 L 9.3671875 5.4375 z M 12 10 A 2 2 0 0 1 14 12 A 2 2 0 0 1 12 14 A 2 2 0 0 1 10 12 A 2 2 0 0 1 12 10 z"/>
</svg>
